symbols/web/usb/materialsymbolsoutlined/usb_wght700gradN25_24px.svg

<svg xmlns="http://www.w3.org/2000/svg" height="24" width="24"><path d="M12.025 22.55q-.95 0-1.625-.687-.675-.688-.675-1.638 0-.575.263-1.025.262-.45.712-.775v-1.75H8.05q-1.1 0-1.875-.775-.775-.775-.775-1.875V11.95q-.45-.325-.725-.825-.275-.5-.275-1.05 0-.975.688-1.637.687-.663 1.637-.663.975 0 1.638.663.662.662.662 1.637 0 .575-.263 1.05-.262.475-.712.8v2.1h2.65v-7.9H8.375L12 1.3l3.625 4.825h-2.3v7.9h2.625v-1.65h-.975V7.8H19.6v4.575h-1v1.65q0 1.1-.775 1.875-.775.775-1.875.775h-2.625v1.7q.475.325.737.813.263.487.263 1.037 0 .95-.687 1.638-.688.687-1.613.687Z"/></svg>

<svg xmlns="http://www.w3.org/2000/svg" height="24" width="24"><path d="M12.025 22.55Q11.075 22.55 10.4 21.863Q9.725 21.175 9.725 20.225Q9.725 19.65 9.988 19.2Q10.25 18.75 10.7 18.425V16.675H8.05Q6.95 16.675 6.175 15.9Q5.4 15.125 5.4 14.025V11.95Q4.95 11.625 4.675 11.125Q4.4 10.625 4.4 10.075Q4.4 9.1 5.088 8.438Q5.775 7.775 6.725 7.775Q7.7 7.775 8.363 8.438Q9.025 9.1 9.025 10.075Q9.025 10.65 8.762 11.125Q8.5 11.6 8.05 11.925V14.025Q8.05 14.025 8.05 14.025Q8.05 14.025 8.05 14.025H10.7V6.125H8.375L12 1.3L15.625 6.125H13.325V14.025H15.95Q15.95 14.025 15.95 14.025Q15.95 14.025 15.95 14.025V12.375H14.975V7.8H19.6V12.375H18.6V14.025Q18.6 15.125 17.825 15.9Q17.05 16.675 15.95 16.675H13.325V18.375Q13.8 18.7 14.062 19.188Q14.325 19.675 14.325 20.225Q14.325 21.175 13.638 21.863Q12.95 22.55 12.025 22.55Z"/></svg>
